src/assets/duotone/MoneyAdd.svg

<svg width="24" height="24" viewBox="0 0 24 24"  xmlns="http://www.w3.org/2000/svg">
<path opacity="0.4" d="M22 9V15C22 18.5 20 20 17 20H8.45001C8.80001 19.41 9 18.73 9 18C9 15.79 7.21 14 5 14C3.8 14 2.73 14.53 2 15.36V9C2 5.5 4 4 7 4H17C20 4 22 5.5 22 9Z" />
<path d="M12 14.5C13.3807 14.5 14.5 13.3807 14.5 12C14.5 10.6193 13.3807 9.5 12 9.5C10.6193 9.5 9.5 10.6193 9.5 12C9.5 13.3807 10.6193 14.5 12 14.5Z" />
<path d="M18.5 14.75C18.09 14.75 17.75 14.41 17.75 14V10C17.75 9.59 18.09 9.25 18.5 9.25C18.91 9.25 19.25 9.59 19.25 10V14C19.25 14.41 18.91 14.75 18.5 14.75Z" />
<path d="M5 14C2.79 14 1 15.79 1 18C1 18.75 1.20999 19.46 1.57999 20.06C2.26999 21.22 3.54 22 5 22C6.46 22 7.73001 21.22 8.42001 20.06C8.79001 19.46 9 18.75 9 18C9 15.79 7.21 14 5 14ZM6.48999 18.73H5.75V19.51C5.75 19.92 5.41 20.26 5 20.26C4.59 20.26 4.25 19.92 4.25 19.51V18.73H3.51001C3.10001 18.73 2.76001 18.39 2.76001 17.98C2.76001 17.57 3.10001 17.23 3.51001 17.23H4.25V16.52C4.25 16.11 4.59 15.77 5 15.77C5.41 15.77 5.75 16.11 5.75 16.52V17.23H6.48999C6.89999 17.23 7.23999 17.57 7.23999 17.98C7.23999 18.39 6.90999 18.73 6.48999 18.73Z" />
</svg>

<?xml version="1.0" encoding="UTF-8"?>
<svg width="24" height="24" viewBox="0 0 24 24" xmlns="http://www.w3.org/2000/svg">
 <path d="m22 9v6c0 3.5-2 5-5 5h-8.55c0.35-0.59 0.54999-1.27 0.54999-2 0-2.21-1.79-4-4-4-1.2 0-2.27 0.53-3 1.36v-6.36c0-3.5 2-5 5-5h10c3 0 5 1.5 5 5z" opacity=".4"/>
 <path d="m12 14.5c1.3807 0 2.5-1.1193 2.5-2.5s-1.1193-2.5-2.5-2.5-2.5 1.1193-2.5 2.5 1.1193 2.5 2.5 2.5z"/>
 <path d="m18.5 14.75c-0.41 0-0.75-0.34-0.75-0.75v-4c0-0.41 0.34-0.75 0.75-0.75s0.75 0.34 0.75 0.75v4c0 0.41-0.34 0.75-0.75 0.75z"/>
 <path d="m5 14c-2.21 0-4 1.79-4 4 0 0.75 0.20999 1.46 0.57999 2.06 0.69 1.16 1.96 1.94 3.42 1.94s2.73-0.78 3.42-1.94c0.37-0.6 0.57999-1.31 0.57999-2.06 0-2.21-1.79-4-4-4zm1.49 4.73h-0.73999v0.78c0 0.41-0.34 0.75-0.75 0.75s-0.75-0.34-0.75-0.75v-0.78h-0.73999c-0.41 0-0.75-0.34-0.75-0.75s0.34-0.75 0.75-0.75h0.73999v-0.71c0-0.41 0.34-0.75 0.75-0.75s0.75 0.34 0.75 0.75v0.71h0.73999c0.41 0 0.75 0.34 0.75 0.75s-0.33 0.75-0.75 0.75z"/>
</svg>
